images/youtube-icon.svg

<svg width="40" height="40" viewBox="0 0 40 40" fill="none" xmlns="http://www.w3.org/2000/svg">
<circle cx="20" cy="20" r="20" fill="white" fill-opacity="0.3"/>
<g clip-path="url(#clip0_48539_811)">
<path d="M27.6671 16.6746C27.5765 16.3515 27.4 16.0589 27.1564 15.828C26.9059 15.59 26.5989 15.4197 26.2644 15.3333C25.0124 15.0033 19.9964 15.0033 19.9964 15.0033C17.9053 14.9795 15.8147 15.0842 13.7364 15.3166C13.4019 15.4094 13.0955 15.5835 12.8444 15.8233C12.5977 16.0606 12.4191 16.3533 12.3257 16.674C12.1015 17.8818 11.9926 19.1082 12.0004 20.3366C11.9924 21.564 12.1011 22.79 12.3257 23.9993C12.4171 24.3186 12.5951 24.61 12.8424 24.8453C13.0897 25.0806 13.3977 25.2506 13.7364 25.3406C15.0051 25.67 19.9964 25.67 19.9964 25.67C22.0902 25.6938 24.1835 25.5892 26.2644 25.3566C26.5989 25.2702 26.9059 25.1 27.1564 24.862C27.3999 24.6311 27.5762 24.3385 27.6664 24.0153C27.8965 22.8079 28.0083 21.581 28.0004 20.352C28.0177 19.1177 27.906 17.885 27.6671 16.674V16.6746ZM18.4017 22.6193V18.0546L22.5751 20.3373L18.4017 22.6193Z" fill="#444444"/>
</g>
<defs>
<clipPath id="clip0_48539_811">
<rect width="16" height="11" fill="white" transform="translate(12 15)"/>
</clipPath>
</defs>
</svg>

<svg xmlns="http://www.w3.org/2000/svg" width="40" height="40" fill="none"><circle cx="20" cy="20" r="20" fill="#fff" fill-opacity=".3"/><g clip-path="url(#a)"><path fill="#444" d="M27.67 16.67c-.1-.32-.27-.61-.51-.84-.25-.24-.56-.41-.9-.5C25.01 15 20 15 20 15a51.1 51.1 0 0 0-6.26.32c-.34.09-.64.26-.9.5-.24.24-.42.53-.51.85a19.4 19.4 0 0 0-.33 3.67c0 1.22.1 2.45.33 3.66.09.32.27.61.51.85.25.23.56.4.9.5 1.27.32 6.26.32 6.26.32 2.09.02 4.18-.08 6.26-.31.34-.09.65-.26.9-.5.24-.23.42-.52.5-.84.24-1.21.35-2.44.34-3.67.02-1.23-.1-2.46-.33-3.68Zm-9.27 5.95v-4.57l4.18 2.29-4.18 2.28Z"/></g><defs><clipPath id="a"><path fill="#fff" d="M12 15h16v11H12z"/></clipPath></defs></svg>
